packages/foundations/icons/Food/Apple.svg

<svg width="24" height="24" viewBox="0 0 24 24" fill="none" xmlns="http://www.w3.org/2000/svg">
<g clip-path="url(#clip0_1_10059)">
<path d="M11.7077 6.8185C11.9452 6.95535 12.2286 6.98866 12.4914 6.91063C12.5829 6.88347 12.6729 6.85571 12.7614 6.82734C12.4714 5.34168 11.9054 4.10549 11.0091 3.20673C10.9508 3.49581 10.9299 3.79702 10.9331 4.09805C10.9397 4.71035 11.0476 5.41183 11.2348 6.18676C11.2991 6.45327 11.4701 6.68165 11.7077 6.8185Z" fill="#3D474D"/>
<path fill-rule="evenodd" clip-rule="evenodd" d="M14.4677 0.625145C14.9891 0.514737 15.5054 0.832525 15.6417 1.34768C15.8328 2.07026 15.9446 2.73482 15.9524 3.32601C15.9601 3.91141 15.8667 4.4946 15.5789 4.99299C15.2949 5.48499 14.8445 5.8599 14.3404 6.15341C13.8961 6.41207 13.3644 6.63401 12.7614 6.82734C12.4714 5.34168 11.9054 4.10549 11.0091 3.20673C11.0673 2.91857 11.1625 2.64244 11.308 2.39051C11.6018 1.88148 12.0704 1.51589 12.5907 1.24812C13.1137 0.979 13.7489 0.777391 14.4677 0.625145ZM10.842 7.44548C10.53 5.57171 9.77979 4.53192 8.77349 4.03159C8.27896 3.78571 8.07738 3.18549 8.32326 2.69096C8.56914 2.19642 9.16936 1.99485 9.66389 2.24073C10.1764 2.49554 10.6234 2.81988 11.0091 3.20673C10.9508 3.49581 10.9299 3.79702 10.9331 4.09805C10.9397 4.71035 11.0476 5.41183 11.2348 6.18676C11.2991 6.45327 11.4701 6.68165 11.7077 6.8185C11.9452 6.95535 12.2286 6.98866 12.4914 6.91063C12.5829 6.88347 12.6729 6.85571 12.7614 6.82734C12.7949 6.99921 12.8248 7.17441 12.851 7.35281C12.4537 7.48611 12.0751 7.66055 11.7185 7.87028C11.4393 7.70613 11.1466 7.5636 10.842 7.44548ZM10.842 7.44548C9.81632 7.04771 8.65534 6.92685 7.41714 7.19004C5.59843 7.57662 4.11506 8.44287 3.18085 9.72006C2.23763 11.0096 1.92643 12.6215 2.29011 14.3325C2.63029 15.9329 3.60237 18.2639 4.8393 20.1998C5.46042 21.1719 6.17728 22.0906 6.95508 22.7781C7.70422 23.4402 8.62477 23.9882 9.65039 24.0048L9.67356 24.0073C9.71946 24.0123 9.78729 24.0195 9.8693 24.026C10.0325 24.0389 10.2565 24.0497 10.5111 24.0375C10.839 24.0218 11.2785 23.9656 11.7182 23.7836C12.158 23.9654 12.5975 24.0217 12.9255 24.0375C13.1801 24.0497 13.4041 24.0389 13.5672 24.026C13.6492 24.0194 13.717 24.0123 13.7629 24.0073L13.7861 24.0048C14.8117 23.9882 15.7322 23.4402 16.4814 22.7781C17.2592 22.0906 17.9761 21.1719 18.5972 20.1998C19.8341 18.2639 20.8062 15.9329 21.1464 14.3325C21.51 12.6215 21.1988 11.0096 20.2556 9.72006C19.3214 8.44287 17.838 7.57662 16.0193 7.19004C14.8833 6.94857 13.8122 7.03037 12.851 7.35281C12.8922 7.63285 12.9246 7.92079 12.9483 8.21609C12.9926 8.7666 12.5822 9.24876 12.0317 9.29303C11.4812 9.3373 10.999 8.92691 10.9547 8.3764C10.9281 8.04539 10.8903 7.73545 10.842 7.44548ZM13.5059 3.02645C13.1926 3.1877 13.0783 3.32426 13.04 3.39051C12.9992 3.46111 12.9285 3.65722 12.933 4.07661C12.9347 4.23457 12.9469 4.41252 12.9709 4.61136C13.1071 4.54911 13.2279 4.48684 13.3341 4.42498C13.6653 4.23216 13.7988 4.07627 13.8469 3.99299C13.8912 3.91611 13.9575 3.73007 13.9526 3.35229C13.9506 3.20449 13.9379 3.03766 13.9128 2.85082C13.7569 2.90796 13.6218 2.96681 13.5059 3.02645ZM7.83297 9.14633C9.10559 8.87583 10.2233 9.19582 11.1164 9.86961C11.473 10.1386 11.9647 10.1385 12.3212 9.86939C13.2133 9.19589 14.3308 8.87581 15.6035 9.14633C17.0531 9.45445 18.0589 10.1045 18.6414 10.9008C19.2148 11.6848 19.4479 12.7038 19.1901 13.9167C18.9088 15.2401 18.045 17.3495 16.9118 19.1229C16.3479 20.0055 15.7462 20.7587 15.1569 21.2795C14.5506 21.8154 14.0725 22.0052 13.7383 22.0052C13.6769 22.0052 13.619 22.0113 13.6097 22.0123L13.6087 22.0124L13.5577 22.0178L13.5473 22.019C13.5078 22.0232 13.4623 22.028 13.409 22.0322C13.3014 22.0408 13.1664 22.0467 13.0213 22.0398C12.7039 22.0245 12.464 21.9536 12.3265 21.8481C11.9672 21.5727 11.4677 21.5729 11.1088 21.8487C10.9722 21.9536 10.733 22.0246 10.4154 22.0398C10.2703 22.0468 10.1353 22.0408 10.0277 22.0323C9.97426 22.028 9.92872 22.0232 9.88923 22.019L9.8788 22.0178L9.82784 22.0124L9.82676 22.0123C9.8175 22.0113 9.75953 22.0052 9.69821 22.0052C9.36395 22.0052 8.88588 21.8154 8.27956 21.2795C7.69027 20.7587 7.08856 20.0055 6.52465 19.1229C5.39152 17.3495 4.52771 15.2401 4.2464 13.9167C3.98859 12.7038 4.22163 11.6848 4.79511 10.9008C5.3776 10.1045 6.38338 9.45445 7.83297 9.14633Z" fill="#3D474D"/>
<path d="M12.0317 9.29303C12.5822 9.24876 12.9926 8.7666 12.9483 8.21609C12.9246 7.92079 12.8922 7.63285 12.851 7.35281C12.4537 7.48611 12.0751 7.66055 11.7185 7.87028C11.4393 7.70613 11.1466 7.5636 10.842 7.44548C10.8903 7.73545 10.9281 8.04539 10.9547 8.3764C10.999 8.92691 11.4812 9.3373 12.0317 9.29303Z" fill="#3D474D"/>
</g>
<defs>
<clipPath id="clip0_1_10059">
<rect width="24" height="24" fill="white"/>
</clipPath>
</defs>
</svg>

<svg xmlns="http://www.w3.org/2000/svg" fill="none" viewBox="0 0 24 24" width="100%" height="100%">
  <g fill="#3D474D" clip-path="url(#a)">
    <path d="M11.708 6.819a1 1 0 0 0 .783.092c.092-.028.182-.055.27-.084-.29-1.485-.856-2.722-1.752-3.62-.058.289-.08.59-.076.891.007.612.115 1.314.302 2.089a1 1 0 0 0 .473.631Z"/>
    <path fill-rule="evenodd" d="M14.468.625a1 1 0 0 1 1.174.723c.19.722.303 1.387.31 1.978.008.585-.085 1.169-.373 1.667-.284.492-.735.867-1.239 1.16-.444.26-.976.481-1.579.674-.29-1.485-.856-2.722-1.752-3.62.058-.288.153-.565.299-.816.294-.51.762-.875 1.283-1.143.523-.269 1.158-.47 1.877-.623Zm-3.626 6.82C10.53 5.572 9.78 4.532 8.773 4.032a1 1 0 0 1 .89-1.791c.513.255.96.579 1.346.966-.058.289-.08.59-.076.891.007.612.115 1.314.302 2.089a1 1 0 0 0 1.256.724c.092-.028.182-.055.27-.084.034.172.064.347.09.526a5.995 5.995 0 0 0-1.133.517 6.033 6.033 0 0 0-.876-.425Zm0 0a5.954 5.954 0 0 0-3.425-.255c-1.819.387-3.302 1.253-4.236 2.53-.943 1.29-1.255 2.901-.89 4.612.34 1.6 1.311 3.932 2.548 5.868.621.972 1.338 1.89 2.116 2.578.75.662 1.67 1.21 2.695 1.227l.024.002.195.019a5.1 5.1 0 0 0 .642.012 3.629 3.629 0 0 0 1.207-.254c.44.181.88.238 1.207.254a5.083 5.083 0 0 0 .838-.03l.023-.003c1.026-.017 1.946-.565 2.695-1.227.778-.687 1.495-1.606 2.116-2.578 1.237-1.936 2.21-4.267 2.55-5.867.363-1.712.052-3.323-.891-4.613-.935-1.277-2.418-2.143-4.237-2.53a5.964 5.964 0 0 0-3.168.163c.041.28.074.568.097.863a1 1 0 1 1-1.993.16 11.066 11.066 0 0 0-.113-.93Zm2.664-4.419c-.313.162-.428.298-.466.365-.04.07-.111.266-.107.686.002.158.014.336.038.534.136-.062.257-.124.363-.186.331-.193.465-.349.513-.432.044-.077.11-.263.106-.64a4.219 4.219 0 0 0-.04-.502 3.598 3.598 0 0 0-.407.175Zm-5.673 6.12c1.273-.27 2.39.05 3.283.724a1 1 0 0 0 1.205 0c.892-.674 2.01-.994 3.283-.724 1.45.308 2.455.958 3.037 1.755.574.784.807 1.803.55 3.016-.282 1.323-1.146 3.432-2.28 5.206-.563.883-1.165 1.636-1.754 2.156-.606.536-1.085.726-1.419.726-.061 0-.119.006-.128.007h-.001l-.051.006-.01.001a3.075 3.075 0 0 1-.526.02c-.318-.015-.558-.085-.696-.19a1 1 0 0 0-1.217 0c-.137.105-.376.176-.694.19a3.077 3.077 0 0 1-.526-.02l-.01-.001-.051-.006h-.001a1.298 1.298 0 0 0-.129-.007c-.334 0-.812-.19-1.418-.726-.59-.52-1.191-1.273-1.755-2.156-1.133-1.774-1.997-3.883-2.279-5.206-.257-1.213-.024-2.232.55-3.016.582-.796 1.587-1.447 3.037-1.755Z" clip-rule="evenodd"/>
    <path d="M12.032 9.293a1 1 0 0 0 .916-1.077 13.174 13.174 0 0 0-.097-.863 5.995 5.995 0 0 0-1.133.517 6.033 6.033 0 0 0-.876-.425c.048.29.086.6.113.931a1 1 0 0 0 1.077.917Z"/>
  </g>
  <defs>
    <clipPath id="a">
      <path fill="#fff" d="M0 0h24v24H0z"/>
    </clipPath>
  </defs>
</svg>
